X: 31697
T: Passacalle
R: waltz
M: 3/4
K: Gmajor
d ed|:"G" d2 B2 (3ABA|G3 d cd|"C"e2 (3ded c2|
z c Bc de|"D" d2 (3cdc B2|z B cB AG|"G"d2 "D"A4|
z d ^cd ed|"C" =c2 B2 A2|"G"Bc B2 G2|"D"(3ABA "G"G4|
z3 d gd|"C"e2 (3ded c2|z c Bc de|"G"d2 BcAB|GB cB AG|
"D"d2 FG EF|Dd ^cd ed|"C"{d}=c2 B2 A2|"G"BdBG "D"(3ABA|"G" G3 z3:|

